img/svg/caret-r-white.svg

<svg xmlns="http://www.w3.org/2000/svg" preserveAspectRatio="xMidYMid" width="9" height="17" viewBox="0 0 9 17"><defs><style>.cls-2 { fill: #ffffff; }</style></defs><path d="M-.011.608l.61-.619 7.927 8.04-.61.618-7.927-8.039zm9.022 8.261l-8.027 8.142-.617-.627 8.026-8.141.618.626z" id="path-1" class="cls-2" fill-rule="evenodd"/></svg>

<svg xmlns="http://www.w3.org/2000/svg" xmlns:xlink="http://www.w3.org/1999/xlink" preserveAspectRatio="xMidYMid" width="9" height="17" viewBox="0 0 9 17">
  <defs>
    <style>

      .cls-2 {
        fill: #ffffff;
      }
    </style>
  </defs>
  <path d="M-0.011,0.608 C-0.011,0.608 0.599,-0.011 0.599,-0.011 C0.599,-0.011 8.526,8.029 8.526,8.029 C8.526,8.029 7.916,8.647 7.916,8.647 C7.916,8.647 -0.011,0.608 -0.011,0.608 ZM9.011,8.869 C9.011,8.869 0.984,17.011 0.984,17.011 C0.984,17.011 0.367,16.384 0.367,16.384 C0.367,16.384 8.393,8.243 8.393,8.243 C8.393,8.243 9.011,8.869 9.011,8.869 Z" id="path-1" class="cls-2" fill-rule="evenodd"/>
</svg>
